proprietary/assets/icons/op-kantoor/nietmachine.svg

<svg height="64" viewBox="0 0 64 64" width="64" xmlns="http://www.w3.org/2000/svg"><path d="m0 0h64v64h-64z" fill="none"/><path d="m57 42h-29v-8c0-.406-.0414-.8022-.1183-1.1857l24.1183-1.3695v4.5552h-22v3h25v-7.7255l4.8344-.2745c.6129 0 1.0815-.5463.9883-1.152l-.6673-5.3374c-.6647-4.3209-4.0126-7.492-8.7544-7.9205-4.354-.3936-10.9725-.5715-18.8297 0-6.2751.4564-20.1379 4.3754-24.3339 10.0447 1.7064.3306 4.7693.9279 4.9974 1.0012.3172.1017.2708.3079.2499.3641h-6.0554c-3.2001-.0001-5.4293 2.4374-5.4293 5.6457v12.3542c0 .5523.4477 1 1 1h57c.5523 0 1-.4477 1-1 0-2.2092-1.7908-4-4-4z"/></svg>

<?xml version="1.0" encoding="utf-8"?>
<!-- Generator: Adobe Illustrator 19.1.0, SVG Export Plug-In . SVG Version: 6.00 Build 0)  -->
<svg version="1.2" baseProfile="tiny" xmlns="http://www.w3.org/2000/svg" xmlns:xlink="http://www.w3.org/1999/xlink" x="0px"
	 y="0px" width="64px" height="64px" viewBox="0 0 64 64" xml:space="preserve">
<g id="Box">
	<rect fill="none" width="64" height="64"/>
</g>
<g id="Icon">
	<path d="M57,42H28v-8c0-0.406-0.0414-0.8022-0.1183-1.1857L52,31.4448V36H30v3h25v-7.7255L59.8344,31
		c0.6129,0,1.0815-0.5463,0.9883-1.152l-0.6673-5.3374c-0.6647-4.3209-4.0126-7.492-8.7544-7.9205
		c-4.354-0.3936-10.9725-0.5715-18.8297,0c-6.2751,0.4564-20.1379,4.3754-24.3339,10.0447
		c1.7064,0.3306,4.7693,0.9279,4.9974,1.0012c0.3172,0.1017,0.2708,0.3079,0.2499,0.3641H7.4293C4.2292,28,2,30.4375,2,33.6458V46
		c0,0.5523,0.4477,1,1,1h57c0.5523,0,1-0.4477,1-1C61,43.7908,59.2092,42,57,42z"/>
</g>
</svg>
